X:400
T:Old Copperplate, The
M:C|
L:1/8
Q:200
S:THSP
R:reel
Z:
K:ADor
"Am"A2EA cA~A2|aged cAFA|"G"G2DG BG~G2|gedc BGGB|
"Am"A2EA cA~A2|aged cABG|ABcd efge
|1 "G"aged "Am"cABG:|2 "G"aged "Am"cA~A2||
|:"Am"ageg a2bg|aged cA~A2|"G"gede g2af|"Em"gedc BG~G2|
"Am"ageg a2bg|aged cABG|ABcd efge|1 "G"aged "Am"cA~A2:|2 "G"aged "Am"cAG
B|]
